src/16/panel/webtorrent-desktop-panel.svg

<svg xmlns="http://www.w3.org/2000/svg" width="16" height="16" version="1.1">
 <defs>
  <style id="current-color-scheme" type="text/css">
   .ColorScheme-Text { color:#dfdfdf; } .ColorScheme-Highlight { color:#5294e2; }
  </style>
 </defs>
 <path style="fill:currentColor" class="ColorScheme-Text" d="M 8.0371,1 A 1.5219,1.5917 0 0 0 7.2383,1.2148 L 2.7617,3.918 A 1.5219,1.5917 0 0 0 2,5.2969 V 10.703 A 1.5219,1.5917 0 0 0 2.7617,12.082 L 7.2383,14.785 A 1.5219,1.5917 0 0 0 8.7617,14.785 L 13.238,12.082 A 1.5219,1.5917 0 0 0 14,10.703 V 5.2969 A 1.5219,1.5917 0 0 0 13.238,3.918 L 8.7617,1.2148 A 1.5219,1.5917 0 0 0 8.0371,1.002 Z M 6.2734,4 C 6.9319,4 7.5847,4.4186 8,5 8.4153,4.4186 9.0681,4 9.7266,4 10.982,4 12,5.3236 12,6.9551 12,7.3943 11.94,7.8155 11.836,8.2187 11.836,8.2187 11.74,8.5805 11.656,8.7812 10.698,11.34 8,13 8,13 8,13 5.302,11.34 4.3437,8.7812 4.2599,8.5805 4.1641,8.2187 4.1641,8.2187 4.0597,7.8155 4,7.3943 4,6.9551 4,5.3236 5.0178,4 6.2734,4 Z"/>
</svg>

<svg xmlns="http://www.w3.org/2000/svg" width="16" height="16"><defs><style id="current-color-scheme" type="text/css"></style></defs><path d="M8.037 1a1.522 1.592 0 0 0-.799.215L2.762 3.918A1.522 1.592 0 0 0 2 5.297v5.406a1.522 1.592 0 0 0 .762 1.379l4.476 2.703a1.522 1.592 0 0 0 1.524 0l4.476-2.703A1.522 1.592 0 0 0 14 10.703V5.297a1.522 1.592 0 0 0-.762-1.379L8.762 1.215a1.522 1.592 0 0 0-.725-.213zM6.273 4C6.932 4 7.585 4.419 8 5c.415-.581 1.068-1 1.727-1C10.982 4 12 5.324 12 6.955c0 .44-.06.86-.164 1.264 0 0-.096.362-.18.562C10.698 11.34 8 13 8 13s-2.698-1.66-3.656-4.219c-.084-.2-.18-.562-.18-.562A5.023 5.023 0 0 1 4 6.955C4 5.324 5.018 4 6.273 4z" fill="currentColor" color="#dfdfdf"/></svg>
